svg/logo/dingtalk_line.svg

<?xml version="1.0" encoding="UTF-8"?>
<svg width="24px" height="24px" viewBox="0 0 24 24" version="1.1" xmlns="http://www.w3.org/2000/svg" xmlns:xlink="http://www.w3.org/1999/xlink">
    <title>dingtalk_line</title>
    <g id="Icon" stroke="none" stroke-width="1" fill="none" fill-rule="evenodd">
        <g id="Logo" transform="translate(-288.000000, -192.000000)">
            <g id="dingtalk_line" transform="translate(288.000000, 192.000000)">
                <path d="M24,0 L24,24 L0,24 L0,0 L24,0 Z M12.5935,23.2578 L12.5819,23.2595 L12.5109,23.295 L12.4919,23.2987 L12.4767,23.295 L12.4057,23.2595 C12.3958,23.2564 12.387,23.259 12.3821,23.2649 L12.378,23.2758 L12.3609,23.7031 L12.3659,23.7235 L12.3769,23.7357 L12.4805,23.8097 L12.4953,23.8136 L12.5071,23.8097 L12.6107,23.7357 L12.6233,23.7197 L12.6267,23.7031 L12.6096,23.2758 C12.6076,23.2657 12.601,23.2593 12.5935,23.2578 Z M12.8584,23.1453 L12.8445,23.1473 L12.6598,23.2397 L12.6499,23.2499 L12.6472,23.2611 L12.6651,23.6906 L12.6699,23.7034 L12.6784,23.7105 L12.8793,23.8032 C12.8914,23.8069 12.9022,23.803 12.9078,23.7952 L12.9118,23.7812 L12.8777,23.1665 C12.8753,23.1546 12.8674,23.147 12.8584,23.1453 Z M12.143,23.1473 C12.1332,23.1424 12.1222,23.1453 12.1156,23.1526 L12.1099,23.1665 L12.0758,23.7812 C12.0751,23.7927 12.0828,23.8019 12.0926,23.8046 L12.1083,23.8032 L12.3092,23.7105 L12.3186,23.7024 L12.3225,23.6906 L12.3404,23.2611 L12.3372,23.2485 L12.3278,23.2397 L12.143,23.1473 Z" id="MingCute" fill-rule="nonzero"></path>
                <path d="M6.80208,2.0198 C7.10393,1.95884 7.41702,2.04035 7.65082,2.24075 L17.402,10.5989 C18.2325,11.3107 18.3371,12.5576 17.6369,13.3978 L16.5765,14.6702 L17.4472,15.1056 C17.7609,15.2624 17.9695,15.5721 17.997,15.9218 C18.0244,16.2714 17.8667,16.6099 17.5813,16.8137 L10.5813,21.8137 C10.2333,22.0623 9.76591,22.0621 9.41817,21.8133 C9.07044,21.5645 8.91934,21.1222 9.0422,20.7127 L10.2523,16.6792 C7.88893,15.7798 6.50507,13.6242 6.01945,11.1961 C5.94954,10.8466 6.07099,10.4862 6.33823,10.2503 C6.52628,10.0843 6.76651,9.99759 7.0102,10.0000001 C6.53573,9.29725 6.14988,8.58092 5.87621,7.85113 C5.22716,6.12034 5.2178,4.32842 6.1056,2.5528 C6.24331,2.27737 6.50024,2.08075 6.80208,2.0198 Z M8.58221,12.5815 C9.23514,13.861 10.2874,14.7377 11.6962,15.0194 C11.9722,15.0746 12.2123,15.2437 12.3573,15.485 C12.5022,15.7264 12.5388,16.0177 12.4579,16.2874 L11.798,18.4868 L15.0673,16.1517 C14.6259,15.931 14.1345,15.7465 14.0212,15.2048 C13.9587,14.9057 14.0362,14.5945 14.2318,14.3598 L16.1004,12.1175 L7.4699,4.71984 C7.33427,5.51783 7.43816,6.32033 7.74886,7.14889 C8.23965,8.45766 9.25297,9.83874 10.7071,11.2929 C11.0351,11.6208 11.0945,12.1312 10.8507,12.5257 C10.6069,12.9203 10.1238,13.0954 9.68381,12.9487 L8.58221,12.5815 Z" id="形状" fill="#09244B"></path>
            </g>
        </g>
    </g>
</svg>

<svg xmlns="http://www.w3.org/2000/svg" width="24" height="24"><g fill="none" fill-rule="evenodd"><path d="M24 0v24H0V0h24ZM12.594 23.258l-.012.002-.071.035-.02.004-.014-.004-.071-.036c-.01-.003-.019 0-.024.006l-.004.01-.017.428.005.02.01.013.104.074.015.004.012-.004.104-.074.012-.016.004-.017-.017-.427c-.002-.01-.009-.017-.016-.018Zm.264-.113-.014.002-.184.093-.01.01-.003.011.018.43.005.012.008.008.201.092c.012.004.023 0 .029-.008l.004-.014-.034-.614c-.003-.012-.01-.02-.02-.022Zm-.715.002a.023.023 0 0 0-.027.006l-.006.014-.034.614c0 .012.007.02.017.024l.015-.002.201-.093.01-.008.003-.011.018-.43-.003-.012-.01-.01-.184-.092Z"/><path fill="#09244B" d="M6.802 2.02a1 1 0 0 1 .849.22l9.751 8.359a2 2 0 0 1 .235 2.799l-1.06 1.272.87.436a1 1 0 0 1 .134 1.708l-7 5a1 1 0 0 1-1.539-1.101l1.21-4.034c-2.363-.9-3.747-3.055-4.233-5.483A1 1 0 0 1 7.01 10c-.474-.703-.86-1.42-1.134-2.149-.649-1.73-.658-3.523.23-5.298a1 1 0 0 1 .696-.533Zm1.78 10.562c.653 1.279 1.705 2.156 3.114 2.437a1 1 0 0 1 .762 1.268l-.66 2.2 3.27-2.335c-.442-.221-.934-.406-1.047-.947a1 1 0 0 1 .21-.845l1.87-2.242L7.47 4.72c-.136.798-.032 1.6.279 2.429.49 1.309 1.504 2.69 2.958 4.144a1 1 0 0 1-1.023 1.656l-1.102-.367Z"/></g></svg>
